static/graphsymbols/affinity.svg

<svg xmlns="http://www.w3.org/2000/svg" viewBox="0 0 675.7 614.9" width="2500" height="2275"><path d="M263.7 0h106.4l8.9 15.5h30.5l266.1 461-57.3 97.7H385.4l23.6 40.7h-10.3l-23.6-40.7H86l-14.8-26H52.9L0 456.6h.1L67.9 339l62.8-36.2 103.9-179.9-20.9-36.2 50-86.7zm62.7 159.1L142.6 476.6h175.9l-20.3-35.1 191.7.2-163.5-282.6z"/></svg>

<?xml version="1.0" encoding="UTF-8" standalone="no"?>
<!DOCTYPE svg PUBLIC "-//W3C//DTD SVG 1.1//EN" "http://www.w3.org/Graphics/SVG/1.1/DTD/svg11.dtd">
<svg width="100%" height="100%" viewBox="0 0 676 615" version="1.1" xmlns="http://www.w3.org/2000/svg" xmlns:xlink="http://www.w3.org/1999/xlink" xml:space="preserve" xmlns:serif="http://www.serif.com/" style="fill-rule:evenodd;clip-rule:evenodd;stroke-linejoin:round;stroke-miterlimit:1.41421;">
    <rect x="0" y="0" width="675.6" height="614.9" fill="#000" style="fill-opacity:0.01;"/>
    <path d="M263.7,0L370.1,0L379,15.5L409.5,15.5L675.6,476.5L618.3,574.2L385.4,574.2L409,614.9L398.7,614.9L375.1,574.2L86,574.2L71.2,548.2L52.9,548.2L0,456.6L0.1,456.6L67.9,339L130.7,302.8L234.6,122.9L213.7,86.7L263.7,0ZM326.4,159.1L142.6,476.6L318.5,476.6L298.2,441.5L489.9,441.7L326.4,159.1Z" style="fill:white;fill-rule:nonzero;"/>
</svg>
